X:1
T:The Sudden Thought (7 key version)
R:Reel
M:C
L:1/8
K:G
d/c/|BGGD G2 Dc| BG B/c/d/B/ cAA d/c/| BGGD G2 Dc|B/c/d/B/ A/B/c/A/ BGG:|
|:e/f/| gdgd gdBG|gdef/g/ aAAe/f/|gdgd gdBG| B/c/d/B/ A/B/c/A/ BGG:|

